lib/brands/icons/google-drawings.svg

<svg xmlns="http://www.w3.org/2000/svg" fill="none" aria-hidden="true" viewBox="0 0 48 48"><g id="google-drawings-Icon"><g id="Group"><path id="Vector" fill="#DB4437" d="M12.3335 4H28.4446L38.4446 14V41.2222C38.4446 42.7563 37.2009 44 35.6668 44H12.3335C10.7993 44 9.55566 42.7563 9.55566 41.2222V6.77781C9.55566 5.24367 10.7993 4 12.3335 4Z"/><path id="Vector_2" fill="#3E2723" fill-opacity="0.2" d="M9.55566 40.6665C9.55566 42.2006 10.7993 43.4443 12.3335 43.4443H35.6668C37.2009 43.4443 38.4446 42.2006 38.4446 40.6665V41.2221C38.4446 42.7562 37.2009 43.9999 35.6668 43.9999H12.3335C10.7993 43.9999 9.55566 42.7562 9.55566 41.2221V40.6665Z"/><path id="Vector_3" fill="white" fill-opacity="0.2" d="M12.3336 4H28.4446V4.55555H12.3336C10.7994 4.55555 9.55566 5.79922 9.55566 7.33336V6.77781C9.55574 5.24367 10.7994 4 12.3336 4Z"/><path id="Vector_4" fill="url(#paint0_linear_94_19247)" d="M29 12.8887L38.4445 22.3331V13.9998"/><path id="Vector_5" fill="#EDA29B" d="M28.4443 4L38.4443 14H31.2221C29.688 14 28.4443 12.7563 28.4443 11.2222V4Z"/><path id="Vector_6" fill="#F1F1F1" d="M26.2224 26.222C26.2224 23.1538 23.7351 20.6665 20.667 20.6665C17.5988 20.6665 15.1113 23.1538 15.1113 26.222C15.1113 29.2902 17.5987 31.7776 20.6669 31.7776C23.735 31.7776 26.2224 29.2902 26.2224 26.222V26.222ZM20.667 29.5553C18.8288 29.5553 17.3336 28.0601 17.3336 26.222C17.3336 24.3839 18.8288 22.8887 20.6669 22.8887C22.5049 22.8887 24.0002 24.3839 24.0002 26.222C24.0002 28.0601 22.505 29.5553 20.6669 29.5553H20.667ZM27.8891 28.4442C27.3336 30.6664 25.6669 32.3331 24.0002 32.8887V37.3331H32.8891V28.4442H27.8891Z"/><path id="Vector_7" fill="url(#paint1_radial_94_19247)" fill-opacity="0.1" d="M12.3335 4H28.4446L38.4446 14V41.2222C38.4446 42.7563 37.2009 44 35.6668 44H12.3335C10.7993 44 9.55566 42.7563 9.55566 41.2222V6.77781C9.55566 5.24367 10.7993 4 12.3335 4Z"/></g></g><defs><linearGradient id="paint0_linear_94_19247" x1="33.7227" x2="33.7227" y1="13.6996" y2="22.3344" gradientUnits="userSpaceOnUse"><stop stop-color="#1A237E" stop-opacity="0.2"/><stop offset="1" stop-color="#1A237E" stop-opacity="0.02"/></linearGradient><radialGradient id="paint1_radial_94_19247" cx="0" cy="0" r="1" gradientTransform="matrix(46.5828 0 0 46.5826 10.47 4.799)" gradientUnits="userSpaceOnUse"><stop stop-color="white"/><stop offset="1" stop-color="white" stop-opacity="0"/></radialGradient></defs></svg>

<svg xmlns="http://www.w3.org/2000/svg" fill="none" aria-hidden="true" viewBox="0 0 48 48"><path fill="#DB4437" d="M12.334 4h16.11l10 10v27.222A2.778 2.778 0 0 1 35.668 44H12.333a2.778 2.778 0 0 1-2.777-2.778V6.778A2.778 2.778 0 0 1 12.334 4Z"/><path fill="#3E2723" fill-opacity=".2" d="M9.556 40.666a2.778 2.778 0 0 0 2.778 2.778h23.333a2.778 2.778 0 0 0 2.778-2.778v.556A2.778 2.778 0 0 1 35.667 44H12.333a2.778 2.778 0 0 1-2.777-2.778v-.556Z"/><path fill="#fff" fill-opacity=".2" d="M12.334 4h16.11v.556h-16.11a2.778 2.778 0 0 0-2.778 2.777v-.555A2.778 2.778 0 0 1 12.334 4Z"/><path fill="url(#a)" d="m29 12.889 9.444 9.444V14"/><path fill="#EDA29B" d="m28.444 4 10 10h-7.222a2.778 2.778 0 0 1-2.778-2.778V4Z"/><path fill="#F1F1F1" d="M26.222 26.222a5.556 5.556 0 1 0-11.11 0 5.556 5.556 0 0 0 11.11 0Zm-5.555 3.333a3.337 3.337 0 0 1-3.333-3.333 3.337 3.337 0 0 1 3.333-3.333A3.337 3.337 0 0 1 24 26.222a3.337 3.337 0 0 1-3.333 3.333Zm7.222-1.11c-.555 2.221-2.222 3.888-3.889 4.444v4.444h8.89v-8.889h-5Z"/><path fill="url(#b)" fill-opacity=".1" d="M12.334 4h16.11l10 10v27.222A2.778 2.778 0 0 1 35.668 44H12.333a2.778 2.778 0 0 1-2.777-2.778V6.778A2.778 2.778 0 0 1 12.334 4Z"/><defs><radialGradient id="b" cx="0" cy="0" r="1" gradientTransform="matrix(46.5828 0 0 46.5826 10.47 4.799)" gradientUnits="userSpaceOnUse"><stop stop-color="#fff"/><stop offset="1" stop-color="#fff" stop-opacity="0"/></radialGradient><linearGradient id="a" x1="33.723" x2="33.723" y1="13.7" y2="22.334" gradientUnits="userSpaceOnUse"><stop stop-color="#1A237E" stop-opacity=".2"/><stop offset="1" stop-color="#1A237E" stop-opacity=".02"/></linearGradient></defs></svg>
